X:23
T:The Plains of Mexico (b)
M:C|
L:1/8
Q:1/4=120
K:FDor
G2|\
c3d cBGA|B2BG B3e|c4 F3G|A2 B4 ed|
c2c2 c2ed|BcBA E2FG|A2FF G2E2|C2F2 F2||
